inst/extdata/shinyApp/data/arabidopsis.thaliana_organ_shm1.svg

<?xml version="1.0" encoding="UTF-8" standalone="no"?>
<svg
   width="5.3462415in"
   height="5.1905036in"
   viewBox="0 0 384.92926 373.71607"
   version="1.1"
   id="svg3"
   sodipodi:docname="arabidopsis.thaliana_organ_shm1.svg"
   inkscape:version="1.2.2 (1:1.2.2+202305151915+b0a8486541)"
   xmlns:inkscape="http://www.inkscape.org/namespaces/inkscape"
   xmlns:sodipodi="http://sodipodi.sourceforge.net/DTD/sodipodi-0.dtd"
   xmlns="http://www.w3.org/2000/svg"
   xmlns:svg="http://www.w3.org/2000/svg"
   xmlns:rdf="http://www.w3.org/1999/02/22-rdf-syntax-ns#"
   xmlns:cc="http://creativecommons.org/ns#"
   xmlns:dc="http://purl.org/dc/elements/1.1/">
  <metadata
     id="metadata9">
    <rdf:RDF>
      <cc:Work
         rdf:about="">
        <dc:format>image/svg+xml</dc:format>
        <dc:type
           rdf:resource="http://purl.org/dc/dcmitype/StillImage" />
      </cc:Work>
    </rdf:RDF>
  </metadata>
  <defs
     id="defs7" />
  <sodipodi:namedview
     pagecolor="#ffffff"
     bordercolor="#666666"
     borderopacity="1"
     objecttolerance="10"
     gridtolerance="10"
     guidetolerance="10"
     inkscape:pageopacity="0"
     inkscape:pageshadow="2"
     inkscape:window-width="1848"
     inkscape:window-height="1016"
     id="namedview5"
     showgrid="false"
     inkscape:zoom="0.962437"
     inkscape:cx="364.6992"
     inkscape:cy="357.94551"
     inkscape:window-x="72"
     inkscape:window-y="27"
     inkscape:window-maximized="1"
     inkscape:current-layer="container"
     fit-margin-top="0"
     fit-margin-left="0"
     fit-margin-right="0"
     fit-margin-bottom="0"
     inkscape:pagecheckerboard="0"
     inkscape:document-units="in"
     inkscape:showpageshadow="2"
     inkscape:deskcolor="#d1d1d1" />
  <g
     inkscape:groupmode="layer"
     id="container"
     inkscape:label="Layer 1"
     transform="translate(-36.75987,-196.64115)">
    <g
       id="root_total"
       style="stroke:#000000;stroke-width:0.075;stroke-miterlimit:4;stroke-dasharray:none;stroke-opacity:1">
      <path
         id="path825"
         d="m 174.45879,297.65444 c 0,0 0,11.85485 0,11.85485 0.0956,5.7964 7.83977,11.03125 0,16.84636 0,0 4.78035,1.24788 4.78035,1.24788 -3.77647,1.18548 -1.68906,2.43336 -1.59345,4.99151 0.15941,5.13502 2.43797,16.39713 -3.1869,20.59 0,0 7.96724,1.24788 7.96724,1.24788 0,0 -7.96724,0 -7.96724,0 6.37379,4.7357 4.76442,17.35799 4.78035,23.08575 0.0164,2.45208 3.04348,9.86448 0,11.40561 -1.4341,0.73625 -2.85227,0.76745 -4.78035,1.07318 -2.80446,-4.52356 -1.45004,-11.36818 -1.59345,-16.22242 0,0 -1.59345,-8.73515 -1.59345,-8.73515 0,0 0,-2.49576 0,-2.49576 -0.0796,-4.92912 -1.59343,-3.62509 -2.80446,-6.34546 -1.64125,-3.66253 -1.51378,-11.66767 2.80446,-14.86848 -5.62486,-2.98867 -3.07535,-11.64894 -3.18688,-15.59848 0,0 -4.65288,-18.09424 -4.65288,-18.09424 0,0 0,-9.98303 0,-9.98303 0,0 11.02666,0 11.02666,0 z"
         style="fill:#e485e9;fill-opacity:1;stroke:#000000;stroke-width:0.075;stroke-miterlimit:4;stroke-dasharray:none;stroke-opacity:1"
         inkscape:connector-curvature="0" />
      <path
         id="path823"
         d="m 182.63318,405.59594 c 0,0 2.88414,4.99151 2.88414,4.99151 0,0 0,8.11121 0,8.11121 0,0 1.68906,10.60697 1.68906,10.60697 0,0 1.59345,20.59 1.59345,20.59 0,0 1.59345,10.60696 1.59345,10.60696 0,0 0,59.27423 0,59.27423 0,0 -1.59345,9.35909 -1.59345,9.35909 0,0 0,32.44485 0,32.44485 0,0 -3.1869,8.73515 -3.1869,8.73515 -7.20238,-1.01079 -9.30573,-4.07433 -9.52881,-6.86958 0,0 6.34191,-21.83163 6.34191,-21.83163 0,0 0,-19.96606 0,-19.96606 0,0 1.59345,-9.35909 1.59345,-9.35909 0,0 0,-54.90665 0,-54.90665 0,0 -1.59345,-8.73515 -1.59345,-8.73515 0,0 -1.59345,-10.60697 -1.59345,-10.60697 0,0 0,-14.3506 0,-14.3506 0,0 -2.00773,-11.85485 -2.00773,-11.85485 -1.83247,-4.38629 -6.72435,-7.31257 2.00773,-11.23091 0,0 1.8006,4.99152 1.8006,4.99152 z"
         style="fill:#e485e9;fill-opacity:1;stroke:#000000;stroke-width:0.075;stroke-miterlimit:4;stroke-dasharray:none;stroke-opacity:1"
         inkscape:connector-curvature="0" />
    </g>
    <g
       id="shoot_totalA"
       style="stroke:#000000;stroke-width:0.648;stroke-miterlimit:4;stroke-dasharray:none;stroke-opacity:1"
       transform="translate(1.4999994)">
      <path
         id="path821"
         d="m 188.79983,256.85504 c 11.90305,-2.23995 34.88057,-7.91155 40.40984,-12.54742 8.89144,-7.46856 6.67655,-11.2933 10.67611,-14.97455 9.9431,-9.1719 23.7105,-17.91953 44.52093,-23.99046 0,0 11.15413,-2.58311 11.15413,-2.58311 6.43754,-1.52865 12.09428,-3.10098 19.39226,-4.03065 7.85571,-1.00454 14.11796,-1.01078 22.0374,-1.32275 4.97155,-0.19342 7.44139,-0.5553 12.74758,-0.40556 12.55637,0.35565 40.84008,2.19003 50.25736,5.28477 8.65242,2.84516 10.38928,5.67784 13.94266,9.47139 4.82815,5.12879 6.08697,9.62739 5.91169,15.08062 -0.30275,8.91609 -18.35651,16.38464 -35.05585,21.63197 -7.7123,2.42089 -28.80954,6.71983 -38.25868,7.56215 0,0 -20.6989,1.02326 -20.6989,1.02326 -6.97931,0.40556 -14.11795,1.8531 -20.45988,1.45378 0,0 -8.36559,-0.93591 -8.36559,-0.93591 0,0 -37.82846,-2.15883 -37.82846,-2.15883 -11.79151,-1.05446 -16.04602,-3.00739 -30.5464,-2.09644 -11.4569,0.72377 -24.87373,4.00569 -35.05585,6.2082 -6.77216,1.46001 -15.16963,3.19457 -18.8505,6.00229 -2.19896,1.68464 -1.86434,3.76236 -1.86434,5.60922 0,0 0,19.96605 0,19.96605 0.0796,2.62679 0.43024,3.0885 1.59345,5.61546 -3.91988,0.41804 -9.67223,1.0295 -12.76352,-0.46172 -1.97587,-0.96087 -1.57751,-3.31936 -1.57751,-4.5298 0,0 0,-18.71818 0,-18.71818 -0.0638,-2.12139 -0.47803,-4.97279 -3.15503,-6.85709 -6.19851,-4.34262 -27.4073,-7.74308 -39.86807,-7.19402 -12.25361,0.53659 -23.280272,3.33808 -33.462406,5.9399 0,0 12.747585,-24.33363 12.747585,-24.33363 7.425471,1.84686 12.237681,6.66991 19.615351,9.30294 7.69635,2.73909 34.05198,8.28591 44.12257,10.03918 -5.38585,-5.51562 -15.45644,-10.295 -18.13344,-16.22242 -1.49784,-3.28816 -0.78079,-6.83214 7.21832,-8.73515 0,0 0,6.86333 0,6.86333 1.81653,3.92458 10.94699,11.31202 15.69547,14.97454 9.08265,-7.34376 14.69158,-13.58316 9.56068,-21.83787 6.37379,1.55985 6.0073,2.93251 8.09472,5.5593 1.06761,1.34771 2.51765,2.42088 2.8682,3.85594 1.03575,4.15544 -7.72822,10.61321 -12.55637,14.29445 6.62874,0.0187 10.0228,-0.68633 15.93449,-1.80318 z"
         style="fill:#a5ebd8;fill-opacity:1;stroke:#000000;stroke-width:0.648;stroke-miterlimit:4;stroke-dasharray:none;stroke-opacity:1"
         inkscape:connector-curvature="0" />
      <path
         inkscape:connector-curvature="0"
         id="Selection #2"
         d="m 100.36346,226.21338 c 0.23902,6.68239 -1.848402,4.60467 -2.979751,8.13617 0,0 -3.075354,9.95807 -3.075354,9.95807 0,0 -4.828148,6.86333 -4.828148,6.86333 0,0 -4.429785,8.71019 -4.429785,8.71019 0,0 -3.648997,4.44869 -3.648997,4.44869 0,0 -2.214892,4.31142 -2.214892,4.31142 -2.390172,4.1492 -13.847063,10.84406 -25.351758,11.51168 -2.820404,0.16846 -5.449593,-0.29325 -7.887568,-0.81112 -15.886677,-3.35056 -9.241999,-8.58541 -7.489206,-13.82026 0,0 4.605065,-13.10272 4.605065,-13.10272 0,0 3.314372,-5.61546 3.314372,-5.61546 2.501712,-6.02101 3.234698,-11.59279 7.839764,-17.4703 4.174833,-5.33468 6.772153,-10.51337 22.244536,-12.69092 14.356966,-0.37436 23.694572,4.2615 23.901722,9.57123 z"
         style="fill:#a5ebd8;fill-opacity:1;stroke:#000000;stroke-width:0.648;stroke-miterlimit:4;stroke-dasharray:none;stroke-opacity:1" />
    </g>
    <g
       id="g4759"
       style="stroke:#000000;stroke-width:0.075;stroke-miterlimit:4;stroke-dasharray:none;stroke-opacity:1">
      <path
         inkscape:connector-curvature="0"
         id="path818"
         d="m 151.9967,403.95217 54.96467,-8.67513 1.30516,1.09568 -52.76801,8.50756 z"
         style="opacity:1;fill:#8aa312;fill-opacity:1;stroke:#000000;stroke-width:0.075;stroke-miterlimit:4;stroke-dasharray:none;stroke-opacity:1" />
      <path
         inkscape:connector-curvature="0"
         id="path819"
         d="m 149.26268,394.04454 54.96468,-8.67513 1.30516,1.09568 -52.76802,8.50756 z"
         style="opacity:1;fill:#8aa312;fill-opacity:1;stroke:#000000;stroke-width:0.075;stroke-miterlimit:4;stroke-dasharray:none;stroke-opacity:1" />
    </g>
  </g>
</svg>

<?xml version="1.0" encoding="UTF-8" standalone="no"?>
<svg
              xmlns:dc="http://purl.org/dc/elements/1.1/"
              xmlns:cc="http://creativecommons.org/ns#"
              xmlns:rdf="http://www.w3.org/1999/02/22-rdf-syntax-ns#"
              xmlns:svg="http://www.w3.org/2000/svg"
              xmlns="http://www.w3.org/2000/svg"
              xmlns:sodipodi="http://sodipodi.sourceforge.net/DTD/sodipodi-0.dtd"
              xmlns:inkscape="http://www.inkscape.org/namespaces/inkscape"
              width="5.3442469in"
              height="5.1897149in"
              viewBox="0 0 384.78565 373.65928"
              version="1.1"
              id="svg3"
              sodipodi:docname="arabidopsis.thaliana_organ_shm1.svg"
              inkscape:version="0.92.5 (0.92.5+68)">
             <metadata
                           id="metadata9">
                          <rdf:RDF>
                                       <cc:Work
                                                     rdf:about="">
                                                    <dc:format>image/svg+xml</dc:format>
                                                    <dc:type
                                                                  rdf:resource="http://purl.org/dc/dcmitype/StillImage" />
                                                    <dc:title />
                                       </cc:Work>
                          </rdf:RDF>
             </metadata>
             <defs
                           id="defs7" />
             <sodipodi:namedview
                           pagecolor="#ffffff"
                           bordercolor="#666666"
                           borderopacity="1"
                           objecttolerance="10"
                           gridtolerance="10"
                           guidetolerance="10"
                           inkscape:pageopacity="0"
                           inkscape:pageshadow="2"
                           inkscape:window-width="1855"
                           inkscape:window-height="1056"
                           id="namedview5"
                           showgrid="false"
                           inkscape:zoom="3.849748"
                           inkscape:cx="366.8564"
                           inkscape:cy="400.95462"
                           inkscape:window-x="65"
                           inkscape:window-y="24"
                           inkscape:window-maximized="1"
                           inkscape:current-layer="container"
                           fit-margin-top="0"
                           fit-margin-left="0"
                           fit-margin-right="0"
                           fit-margin-bottom="0"
                           inkscape:pagecheckerboard="0"
                           inkscape:document-units="in" />
             <g
                           inkscape:groupmode="layer"
                           id="container"
                           inkscape:label="Layer 1"
                           transform="translate(-35.331816,-196.82677)">
                          <g
                                        id="root_total"
                                        style="stroke:#000000;stroke-opacity:1;stroke-width:0.07499997;stroke-miterlimit:4;stroke-dasharray:none">
                                       <path
                                                     id="path825"
                                                     d="M 174.45879,297.65444 C 174.45879,297.65444 174.45879,309.50929 174.45879,309.50929 174.55443,315.30569 182.29856,320.54054 174.45879,326.35565 174.45879,326.35565 179.23914,327.60353 179.23914,327.60353 175.46267,328.78901 177.55008,330.03689 177.64569,332.59504 177.8051,337.73006 180.08366,348.99217 174.45879,353.18504 174.45879,353.18504 182.42603,354.43292 182.42603,354.43292 182.42603,354.43292 174.45879,354.43292 174.45879,354.43292 180.83258,359.16862 179.22321,371.79091 179.23914,377.51867 179.25553,379.97075 182.28262,387.38315 179.23914,388.92428 177.80504,389.66053 176.38687,389.69173 174.45879,389.99746 171.65433,385.4739 173.00875,378.62928 172.86534,373.77504 172.86534,373.77504 171.27189,365.03989 171.27189,365.03989 171.27189,365.03989 171.27189,362.54413 171.27189,362.54413 171.19227,357.61501 169.67846,358.91904 168.46743,356.19867 166.82618,352.53614 166.95365,344.531 171.27189,341.33019 165.64703,338.34152 168.19654,329.68125 168.08501,325.73171 168.08501,325.73171 163.43213,307.63747 163.43213,307.63747 163.43213,307.63747 163.43213,297.65444 163.43213,297.65444 163.43213,297.65444 174.45879,297.65444 174.45879,297.65444 Z"
                                                     style="fill:#e485e9;fill-opacity:1;stroke:#000000;stroke-width:0.07499997;stroke-miterlimit:4;stroke-dasharray:none;stroke-opacity:1"
                                                     inkscape:connector-curvature="0" />
                                       <path
                                                     id="path823"
                                                     d="M 182.63318,405.59594 C 182.63318,405.59594 185.51732,410.58745 185.51732,410.58745 185.51732,410.58745 185.51732,418.69866 185.51732,418.69866 185.51732,418.69866 187.20638,429.30563 187.20638,429.30563 187.20638,429.30563 188.79983,449.89563 188.79983,449.89563 188.79983,449.89563 190.39328,460.50259 190.39328,460.50259 190.39328,460.50259 190.39328,519.77682 190.39328,519.77682 190.39328,519.77682 188.79983,529.13591 188.79983,529.13591 188.79983,529.13591 188.79983,561.58076 188.79983,561.58076 188.79983,561.58076 185.61293,570.31591 185.61293,570.31591 178.41055,569.30512 176.3072,566.24158 176.08412,563.44633 176.08412,563.44633 182.42603,541.6147 182.42603,541.6147 182.42603,541.6147 182.42603,521.64864 182.42603,521.64864 182.42603,521.64864 184.01948,512.28955 184.01948,512.28955 184.01948,512.28955 184.01948,457.3829 184.01948,457.3829 184.01948,457.3829 182.42603,448.64775 182.42603,448.64775 182.42603,448.64775 180.83258,438.04078 180.83258,438.04078 180.83258,438.04078 180.83258,423.69018 180.83258,423.69018 180.83258,423.69018 178.82485,411.83533 178.82485,411.83533 176.99238,407.44904 172.1005,404.52276 180.83258,400.60442 180.83258,400.60442 182.63318,405.59594 182.63318,405.59594 Z"
                                                     style="fill:#e485e9;fill-opacity:1;stroke:#000000;stroke-width:0.07499997;stroke-miterlimit:4;stroke-dasharray:none;stroke-opacity:1"
                                                     inkscape:connector-curvature="0" />
                          </g>
                          <g
                                        id="shoot_totalA"
                                        style="stroke:#000000;stroke-width:0.6479997;stroke-miterlimit:4;stroke-dasharray:none;stroke-opacity:1">
                                       <path
                                                     id="path821"
                                                     d="M 188.79983,256.85504 C 200.70288,254.61509 223.6804,248.94349 229.20967,244.30762 238.10111,236.83906 235.88622,233.01432 239.88578,229.33307 249.82888,220.16117 263.59628,211.41354 284.40671,205.34261 284.40671,205.34261 295.56084,202.7595 295.56084,202.7595 301.99838,201.23085 307.65512,199.65852 314.9531,198.72885 322.80881,197.72431 329.07106,197.71807 336.9905,197.4061 341.96205,197.21268 344.43189,196.8508 349.73808,197.00054 362.29445,197.35619 390.57816,199.19057 399.99544,202.28531 408.64786,205.13047 410.38472,207.96315 413.9381,211.7567 418.76625,216.88549 420.02507,221.38409 419.84979,226.83732 419.54704,235.75341 401.49328,243.22196 384.79394,248.46929 377.08164,250.89018 355.9844,255.18912 346.53526,256.03144 346.53526,256.03144 325.83636,257.0547 325.83636,257.0547 318.85705,257.46026 311.71841,258.9078 305.37648,258.50848 305.37648,258.50848 297.01089,257.57257 297.01089,257.57257 297.01089,257.57257 259.18243,255.41374 259.18243,255.41374 247.39092,254.35928 243.13641,252.40635 228.63603,253.3173 217.17913,254.04107 203.7623,257.32299 193.58018,259.5255 186.80802,260.98551 178.41055,262.72007 174.72968,265.52779 172.53072,267.21243 172.86534,269.29015 172.86534,271.13701 172.86534,271.13701 172.86534,291.10306 172.86534,291.10306 172.94495,293.72985 173.29558,294.19156 174.45879,296.71852 170.53891,297.13656 164.78656,297.74802 161.69527,296.2568 159.7194,295.29593 160.11776,292.93744 160.11776,291.727 160.11776,291.727 160.11776,273.00882 160.11776,273.00882 160.054,270.88743 159.63973,268.03603 156.96273,266.15173 150.76422,261.80911 129.55543,258.40865 117.09466,258.95771 104.84105,259.4943 93.814388,262.29579 83.632254,264.89761 83.632254,264.89761 96.379839,240.56398 96.379839,240.56398 103.80531,242.41084 108.61752,247.23389 115.99519,249.86692 123.69154,252.60601 150.04717,258.15283 160.11776,259.9061 154.73191,254.39048 144.66132,249.6111 141.98432,243.68368 140.48648,240.39552 141.20353,236.85154 149.20264,234.94853 149.20264,234.94853 149.20264,241.81186 149.20264,241.81186 151.01917,245.73644 160.14963,253.12388 164.89811,256.7864 173.98076,249.44264 179.58969,243.20324 174.45879,234.94853 180.83258,236.50838 180.46609,237.88104 182.55351,240.50783 183.62112,241.85554 185.07116,242.92871 185.42171,244.36377 186.45746,248.51921 177.69349,254.97698 172.86534,258.65822 179.49408,258.67692 182.88814,257.97189 188.79983,256.85504 Z"
                                                     style="fill:#a5ebd8;fill-opacity:1;stroke:#000000;stroke-width:0.6479997;stroke-miterlimit:4;stroke-dasharray:none;stroke-opacity:1"
                                                     inkscape:connector-curvature="0" />
                                       <path
                                                     inkscape:connector-curvature="0"
                                                     id="Selection #2"
                                                     d="M 100.36346,226.21338 C 100.60248,232.89577 98.515058,230.81805 97.383709,234.34955 97.383709,234.34955 94.308355,244.30762 94.308355,244.30762 94.308355,244.30762 89.480207,251.17095 89.480207,251.17095 89.480207,251.17095 85.050422,259.88114 85.050422,259.88114 85.050422,259.88114 81.401425,264.32983 81.401425,264.32983 81.401425,264.32983 79.186533,268.64125 79.186533,268.64125 76.796361,272.79045 65.33947,279.48531 53.834775,280.15293 51.014371,280.32139 48.385182,279.85968 45.947207,279.34181 30.06053,275.99125 36.705208,270.7564 38.458001,265.52155 38.458001,265.52155 43.063066,252.41883 43.063066,252.41883 43.063066,252.41883 46.377438,246.80337 46.377438,246.80337 48.87915,240.78236 49.612136,235.21058 54.217202,229.33307 58.392035,223.99839 60.989355,218.8197 76.461738,216.64215 90.818704,216.26779 100.15631,220.90365 100.36346,226.21338 Z"
                                                     style="fill:#a5ebd8;fill-opacity:1;stroke:#000000;stroke-width:0.6479997;stroke-miterlimit:4;stroke-dasharray:none;stroke-opacity:1" />
                          </g>
                          <g
                                        id="g4759"
                                        style="stroke:#000000;stroke-opacity:1;stroke-width:0.07499997;stroke-miterlimit:4;stroke-dasharray:none">
                                       <path
                                                     inkscape:connector-curvature="0"
                                                     id="path818"
                                                     d="M 151.9967,403.95217 206.96137,395.27704 208.26653,396.37272 155.49852,404.88028 Z"
                                                     style="opacity:1;fill:#8aa312;fill-opacity:1;stroke:#000000;stroke-width:0.07499997;stroke-miterlimit:4;stroke-dasharray:none;stroke-opacity:1" />
                                       <path
                                                     inkscape:connector-curvature="0"
                                                     id="path819"
                                                     d="M 149.26268,394.04454 204.22736,385.36941 205.53252,386.46509 152.7645,394.97265 Z"
                                                     style="opacity:1;fill:#8aa312;fill-opacity:1;stroke:#000000;stroke-width:0.07499997;stroke-miterlimit:4;stroke-dasharray:none;stroke-opacity:1" />
                          </g>
             </g>
</svg>
